X:1
T:He Rose from the Dead
T:He Rose from the Dead
T:Arranged by George King
T:Arranged by George King
T:Public Domain Courtesy of the Cyber Hymnal™
T:Public Domain Courtesy of the Cyber Hymnal™
C:Arranged by George King
Z:Public Domain
Z:Courtesy of the Cyber Hymnal™
%%score ( 1 2 ) 3
L:1/8
Q:1/4=130
M:4/4
K:Eb
V:1 treble 
V:2 treble 
V:3 bass 
V:1
 [GB]2 | [EG]2 [GB]2 [EG]2 [GB]2 | [EG]2 [GB]4 [GB]2 | [Ac]2 [GB]2 [FA]2 [EG]2 | [DF]6 [FA]2 | %5
w: 1.~They|cru- ci- fied my|Sav- ior, and|nailed Him to the|cross; They|
w: 2.~But|Jo- seph begged His|bo- dy, and|laid it in a|tomb; But|
w: 3.~An|an- gel came from|glo- ry, and|rolled a- way the|stone; An|
 [DF]2 [FA]2 [DF]2 [FA]2 | [DF]2 [FA]4 [FA]2 | [Dc]3 [DB] [DB]3 [DA] | [EG]6 [GB]2 | %9
w: cru- ci- fied my|Sav- ior, and|nailed Him to the|cross; They|
w: Jo- seph begged His|bo- dy, and|laid it in a|tomb; But|
w: an- gel came from|glo- ry, and|rolled a- way the|stone; An|
 [EG]2 [GB]2 [EG]2 [GB]2 | [EG]2 [GB]4 [GB]2 | [Ac]2 [GB]2 [FA]2 [EG]2 | %12
w: cru- ci- fied my|Sav- ior, and|nailed Him to the|
w: Jo- seph begged His|bo- dy, and|laid it in a|
w: an- gel came from|glo- ry, and|rolled a- way the|
 ([DF]2 [EG]2) [FA]2 [EB]2 | [Ec]6 [Ec]2 | [EB]6 [FA]2 | [EG]4 [B,F]4 | [B,E]6 || %17
w: cross; * And the|Lord shall|bear my|spir- it|home.|
w: tomb; * And the|Lord shall|bear my|spir- it|home.|
w: stone; * And the|Lord shall|bear my|spir- it|home.|
"^Refrain" [GB]2 [EG]6 [GB]2 | [EG]6 [GB]2 | ([Ac]2 [GB]2) [FA]2 [EG]2 | [DF]6 [FA]2 | %21
w: ||||
w: He rose, He|rose, He|rose * from the|dead; He|
w: ||||
 [DF]6 [FA]2 | [DF]6 [FA]2 | (c B3) [DB]3 [DA] | [EG]6 [GB]2 | [EG]6 [GB]2 | [EG]6 [GB]2 | %27
w: ||||||
w: rose, He|rose, He|rose * from the|dead; He|rose, He|rose, He|
w: ||||||
 ([Ac]2 [GB]2) [FA]2 [EG]2 | ([DF]2 [EG]2) [FA]2 [EB]2 | [Ec]6 [Ec]2 | [EB]6 [FA]2 | [EG]4 [DF]4 | %32
w: |||||
w: rose * from the|dead, * And the|Lord shall|bear my|spir- it|
w: |||||
 [B,E]6 |] %33
w: |
w: home.|
w: |
V:2
 x2 | x8 | x8 | x8 | x8 | x8 | x8 | x8 | x8 | x8 | x8 | x8 | x8 | x8 | x8 | x8 | x6 || x10 | x8 | %19
 x8 | x8 | x8 | x8 | D4 x4 | x8 | x8 | x8 | x8 | x8 | x8 | x8 | x8 | x6 |] %33
V:3
 [E,B,]2 | [E,B,]2 [E,B,]2 [E,B,]2 [E,B,]2 | [E,B,]2 [E,E]4 [E,E]2 | %3
w: ~|~ ~ ~ ~|~ ~ ~|
 [E,E]2 [E,E]2 [E,B,]2 [E,B,]2 | [B,,B,]6 [B,,B,]2 | [B,,B,]2 [B,,B,]2 [B,,B,]2 [B,,B,]2 | %6
w: ~ ~ ~ ~|~ ~|~ ~ ~ ~|
 [B,,B,]2 [B,,B,]4 [B,,B,]2 | [B,,B,]3 [B,,B,] [B,,B,]3 [B,,B,] | [E,B,]6 [E,B,]2 | %9
w: ~ ~ ~|~ ~ ~ ~|~ ~|
 [E,B,]2 [E,B,]2 [E,B,]2 [E,B,]2 | [E,B,]2 [E,E]4 [E,E]2 | [E,E]2 [E,E]2 [E,B,]2 [E,B,]2 | %12
w: ~ ~ ~ ~|~ ~ ~|~ ~ ~ ~|
 [B,,B,]4 [B,,B,]2 [E,G,]2 | [A,,A,]6 [A,,A,]2 | [G,,E,]6 [A,,C]2 | [B,,B,]4 [B,,A,]4 | [E,G,]6 || %17
w: ~ ~ ~|~ ~|~ ~|~ ~|~|
 z4 [E,B,]2 [E,B,]2 z2 | z2 [E,B,]2 [E,B,]2 [E,E]2 | [E,E]4 [E,B,]2 [E,B,]2 | [B,,B,]6 z2 | %21
w: He rose,|He rose, ~|~ ~ ~|~|
 z2 [B,,B,]2 [B,,B,]2 z2 | z2 [B,,B,]2 [B,,B,]2 [B,,B,]2 | [B,,B,]4 [B,,B,]3 [B,,B,] | [E,B,]6 z2 | %25
w: He rose,|He rose, ~|~ ~ ~|~|
 z2 [E,B,]2 [E,B,]2 z2 | z2 [E,B,]2 [E,B,]2 [E,E]2 | [E,E]4 [E,E]2 [E,B,]2 | %28
w: He rose,|He rose, *||
 [B,,B,]4 [B,,B,]2 [E,G,]2 | [A,,A,]6 [A,,A,]2 | [G,,E,]6 [A,,C]2 | [B,,B,]4 [B,,A,]4 | [E,G,]6 |] %33
w: |||||

